front/ioframe/img/icons/search-folder-icon.svg

<svg xmlns="http://www.w3.org/2000/svg" width="21.026" height="17.536" viewBox="0 0 21.026 17.536"><defs><style>.a,.b{fill:#fff2db;}.a{stroke:#d9b97e;}.b{stroke-linejoin:round;}.c,.d,.f{fill:none;}.c,.d{stroke:#9a7736;}.d{stroke-linecap:round;}.e,.g{stroke:none;}.g{fill:#d9b97e;}</style></defs><g transform="translate(0 -0.04)"><g transform="translate(0 0)"><g class="a" transform="translate(0 3.04)"><path class="e" d="M0,0H19a2,2,0,0,1,2,2V12a2,2,0,0,1-2,2H2a2,2,0,0,1-2-2V0A0,0,0,0,1,0,0Z"/><path class="f" d="M1,.5H19A1.5,1.5,0,0,1,20.5,2V12A1.5,1.5,0,0,1,19,13.5H2A1.5,1.5,0,0,1,.5,12V1A.5.5,0,0,1,1,.5Z"/></g><g class="b" transform="translate(0 0.062)"><path class="e" d="M 5.311403274536133 3.504524230957031 L 0.5 3.504524230957031 L 0.5 0.4871047735214233 C 1.044846296310425 0.4834381937980652 1.944337606430054 0.4783042371273041 2.71028995513916 0.4783042371273041 C 3.570450067520142 0.4783042371273041 3.904819965362549 0.4848242402076721 4.033870220184326 0.4902942478656769 C 4.253880023956299 0.4996242225170135 4.477839946746826 0.9363142251968384 4.534160137176514 1.116854190826416 L 4.535079956054688 1.119784235954285 L 4.536029815673828 1.122714281082153 L 5.311403274536133 3.504524230957031 Z"/><path class="g" d="M 2.71028995513916 0.9783041477203369 C 2.147756338119507 0.9783041477203369 1.512948513031006 0.9810786247253418 1 0.9840042591094971 L 1 3.004524230957031 L 4.622809886932373 3.004524230957031 L 4.060589790344238 1.277484178543091 C 4.059319972991943 1.273584127426147 4.058070182800293 1.269684314727783 4.056849956512451 1.265764236450195 C 4.037157535552979 1.202640295028687 3.967609643936157 1.062429904937744 3.909065723419189 0.9865701198577881 C 3.733851671218872 0.9822897911071777 3.388517618179321 0.9783041477203369 2.71028995513916 0.9783041477203369 M 2.71028733253479 -0.02170014381408691 C 3.311127662658691 -0.02170014381408691 3.834933042526245 -0.01859021186828613 4.055049896240234 -0.009255647659301758 C 4.715330123901367 0.01874423027038574 5.011469841003418 0.9679341316223145 5.011469841003418 0.9679341316223145 L 6 4.004524230957031 L 0 4.004524230957031 L 0 -0.009255647659301758 C 0 -0.009255647659301758 1.508826732635498 -0.02170014381408691 2.71028733253479 -0.02170014381408691 Z"/></g></g><g transform="translate(9.645 6.51)"><g class="c" transform="translate(0.192 -0.47)"><circle class="e" cx="4" cy="4" r="4"/><circle class="f" cx="4" cy="4" r="3.5"/></g><line class="d" x2="3.871" y2="3.871" transform="translate(6.804 6.489)"/></g></g></svg>

<?xml version="1.0" encoding="UTF-8" standalone="no"?>
<svg
   xmlns:osb="http://www.openswatchbook.org/uri/2009/osb"
   xmlns:dc="http://purl.org/dc/elements/1.1/"
   xmlns:cc="http://creativecommons.org/ns#"
   xmlns:rdf="http://www.w3.org/1999/02/22-rdf-syntax-ns#"
   xmlns:svg="http://www.w3.org/2000/svg"
   xmlns="http://www.w3.org/2000/svg"
   xmlns:xlink="http://www.w3.org/1999/xlink"
   xmlns:sodipodi="http://sodipodi.sourceforge.net/DTD/sodipodi-0.dtd"
   xmlns:inkscape="http://www.inkscape.org/namespaces/inkscape"
   width="21.026"
   height="17.536"
   viewBox="0 0 21.026 17.536"
   id="svg2"
   version="1.1"
   inkscape:version="0.91 r13725"
   sodipodi:docname="search-folder-icon.svg">
  <metadata
     id="metadata36">
    <rdf:RDF>
      <cc:Work
         rdf:about="">
        <dc:format>image/svg+xml</dc:format>
        <dc:type
           rdf:resource="http://purl.org/dc/dcmitype/StillImage" />
      </cc:Work>
    </rdf:RDF>
  </metadata>
  <sodipodi:namedview
     pagecolor="#ffffff"
     bordercolor="#666666"
     borderopacity="1"
     objecttolerance="10"
     gridtolerance="10"
     guidetolerance="10"
     inkscape:pageopacity="0"
     inkscape:pageshadow="2"
     inkscape:window-width="1186"
     inkscape:window-height="673"
     id="namedview34"
     showgrid="false"
     inkscape:zoom="19.032528"
     inkscape:cx="1.971822"
     inkscape:cy="10.403284"
     inkscape:window-x="0"
     inkscape:window-y="0"
     inkscape:window-maximized="0"
     inkscape:current-layer="g8" />
  <defs
     id="defs4">
    <linearGradient
       id="linearGradient4164"
       osb:paint="solid">
      <stop
         style="stop-color:#deffff;stop-opacity:1;"
         offset="0"
         id="stop4166" />
    </linearGradient>
    <style
       id="style6">.a,.b{fill:#fff2db;}.a{stroke:#d9b97e;}.b{stroke-linejoin:round;}.c,.d,.f{fill:none;}.c,.d{stroke:#9a7736;}.d{stroke-linecap:round;}.e,.g{stroke:none;}.g{fill:#d9b97e;}</style>
    <linearGradient
       inkscape:collect="always"
       xlink:href="#linearGradient4164"
       id="linearGradient4168"
       x1="0"
       y1="7"
       x2="21"
       y2="7"
       gradientUnits="userSpaceOnUse" />
  </defs>
  <g
     transform="translate(0 -0.04)"
     id="g8">
    <g
       transform="translate(0 0)"
       id="g10">
      <g
         class="a"
         transform="translate(0 3.04)"
         id="g12"
         style="fill:url(#linearGradient4168);fill-opacity:1;stroke:#69c4d3;stroke-opacity:1">
        <path
           class="e"
           d="M0,0H19a2,2,0,0,1,2,2V12a2,2,0,0,1-2,2H2a2,2,0,0,1-2-2V0A0,0,0,0,1,0,0Z"
           id="path14"
           style="fill:url(#linearGradient4168);fill-opacity:1;stroke:#69c4d3;stroke-opacity:1" />
        <path
           class="f"
           d="m 1,0.5 18,0 c 0.828427,0 1.5,0.6715729 1.5,1.5 l 0,10 c 0,0.828427 -0.671573,1.5 -1.5,1.5 l -17,0 C 1.1715729,13.5 0.5,12.828427 0.5,12 L 0.5,10.858085 0.5,1 C 0.5,0.72385763 0.72385763,0.5 1,0.5 Z"
           id="path16"
           style="fill:url(#linearGradient4168);fill-opacity:1;stroke:#69c4d3;stroke-opacity:1"
           inkscape:connector-curvature="0"
           sodipodi:nodetypes="ssssssscss" />
      </g>
      <path
         style="fill:#deffff;stroke:none;stroke-linejoin:round"
         inkscape:connector-curvature="0"
         id="path20"
         d="m 5.3114033,3.5665242 -4.8114033,0 0,-3.01741943 c 0.5448463,-0.003667 1.4443376,-0.008801 2.21029,-0.008801 0.8601601,0 1.19453,0.00652 1.3235802,0.01199 0.2200098,0.00933 0.4439697,0.44601998 0.5002899,0.62655993 l 9.199e-4,0.00293 9.498e-4,0.00293 0.7753735,2.3818099 z"
         class="e" />
      <path
         style="fill:#69c4d3;stroke:none;stroke-linejoin:round;fill-opacity:1"
         inkscape:connector-curvature="0"
         id="path22"
         d="m 2.71029,1.0403042 c -0.5625337,0 -1.1973415,0.00277 -1.71029,0.0057 l 0,2.0205199 3.6228099,0 -0.5622201,-1.72704 c -0.00127,-0.0039 -0.00252,-0.0078 -0.00374,-0.01172 C 4.0371578,1.2646401 3.9676098,1.1244298 3.9090655,1.04857 3.7338515,1.04429 3.3885174,1.040304 2.7102898,1.040304 m -2.7e-6,-1.00000428 c 0.6008404,0 1.1246457,0.0031099 1.3447626,0.01244449 C 4.7153299,0.08074409 5.0114696,1.029934 5.0114696,1.029934 L 6,4.0665242 l -6,0 0,-4.01377985 c 0,0 1.5088267,-0.01244449 2.7102873,-0.01244449 z"
         class="g" />
    </g>
    <g
       transform="translate(9.645 6.51)"
       id="g24"
       style="stroke:#004453;stroke-opacity:1">
      <g
         class="c"
         transform="translate(0.192 -0.47)"
         id="g26"
         style="stroke:#004453;stroke-opacity:1">
        <circle
           class="e"
           cx="4"
           cy="4"
           r="4"
           id="circle28"
           style="stroke:#004453;stroke-opacity:1" />
        <circle
           class="f"
           cx="4"
           cy="4"
           r="3.5"
           id="circle30"
           style="stroke:#004453;stroke-opacity:1" />
      </g>
      <line
         class="d"
         x2="3.871"
         y2="3.871"
         transform="translate(6.804 6.489)"
         id="line32"
         style="stroke:#004453;stroke-opacity:1" />
    </g>
  </g>
</svg>
